X: 18387
T: Hungry Rock, The
R: jig
M: 6/8
K: Edorian
|:"Em"zEB GEB|"D"EFF dAf|"Em"zEB GEB|"D"EFd EFD|
"Em"zEB GEB|"D"EFF dAf|"D"zgf "G"edB|"A"ABd EF"D"D:|
|:"D"zAF ABd|"G"efe "A"dAB|"D"zAF ABd|"A"efg fe"D"d|
"D"zAF ABd|"A"efe "G"dAB|"Em"zgf edB|"A"ABd ed"D"f:|
|:"Em"zEF GFE|"Em"EEF GFE|"Em"zEF GFE|"G"BGE "A"cA"D"d|
"Em"zEF GFE|"Em"EEF GFE|"G"zBG "A"EcA|"D"dAf gf"Em"e:|

